X: 65
T: Wszytka ziemia, wszytki kraje,
C: Mikołaj Gomółka
%%abc-version 2.0
%%abcx-abcm2ps-target-version 5.9.1 (29 Sep 2008)
%%abc-creator hum2abc beta
%%abcx-conversion-date 2021/10/04 07:59:10
%%abc-edited-by Anna Matuszewska
%%abcx-initial-encoding-date 2020-02-13
%%humdrum-veritas 1595174115
%%humdrum-veritas-data 3903033095
%%linebreak <none>
%%barnumbers 0
L: 1/4
M: C|
N: Derived from pl-wn--sd-xvi-qu-273--066_gomolka-mikolaj--wszytka-ziemia-wszytki-kraje.krn
%%staves [1 2 3 4]
V: 1
V: 2 clef=alto
V: 3 clef=alto
V: 4 clef=bass
K: C
[V:1] G4A2c2 [|] 
[V:2] E4F2EF [|] 
[V:3] C4C2C2 [|] 
[V:4] C,4F,2A,2 [|] 
[V:1] B2G2A2GF [|] 
[V:2] G2G,2F,2F,2 [|] 
[V:3] D2E2F2D2 [|] 
[V:4] G,2E,2D,4 [|] 
[V:1] E2G4G2 [|] 
[V:2] G,2>A,2B,CDE [|] 
[V:3] C2C2G,A,B,2 [|] 
[V:4] E,2>F,2G,2G,2 [|] 
[V:1] A2>B2c4 [|] 
[V:2] F4G2G2 [|] 
[V:3] C2>D2EDEF [|] 
[V:4] F,4C,3D, [|] 
[V:1] B2>c2d2c4 [|] 
[V:2] E2D2A2>G2x2 [|] 
[V:3] G2G2FEED/C/x2 [|] 
[V:4] E,F,G,2D,2E,2x2 [|] 
[V:1] x2B2c2G2 [|] 
[V:2] FDGFE2G2 [|] 
[V:3] D4C2ED [|] 
[V:4] F,2G,2C,2CB, [|] 
[V:1] c2>B2AGFE [|] 
[V:2] FEF2F,2F,2 [|] 
[V:3] CB,A,B,C2C2 [|] 
[V:4] A,G,A,G,F,E,D,C, [|] 
[V:1] D2G>FED/C/D2 [|] 
[V:2] F,2G,A,B,C2B, [|] 
[V:3] B,2C2B,A,B,2 [|] 
[V:4] D,2C,2G,A,G,2 [|] 
[V:1] E2G2c2B2 [|] 
[V:2] C2E2>F2G2 [|] 
[V:3] G,2CDECDE [|] 
[V:4] C,2C2A,2G,2 [|] 
[V:1] A2A2B2AG [|] 
[V:2] C2D2B,2E2 [|] 
[V:3] F2>E2D2CB, [|] 
[V:4] F,2D,2G,2C,2 [|] 
[V:1] ^FG2FG4 [|] 
[V:2] D2>C2B,4 [|] 
[V:3] A,G,A,2G,4 [|] 
[V:4] D,4G,,4 [|] 


